X: 4
T: The Contradiction
R: reel
M: 4/4
L: 1/8
K: Gmaj
B3G AD3|BDGB cedc|BAGF GABd|egfa gedc|
B2BG AD3|BDGB cedc|BAGF GABd|(3efg fa g3||
d|gfga gdBd (3cBA AG|FGAB|G2 gf gdBd|(3cBA AG DGG2|
gfga gdBG|cBAG FGAB|GBdB Gceg|fadf g3||
d|Bded Bded|(3efg dB AGFA|Bded Bded|(3efg fa gedc|
Bded Bded|(3efg dB A3B|dBdg eceg fadf g3||


Tune 196	Setting 196

